epam-assets/icon-sources/18/editor-chart-donut.svg

<svg width="18" height="18" viewBox="0 0 18 18" fill="none" xmlns="http://www.w3.org/2000/svg">
<g id="18/editor-chart-donut">
<path id="icon" fill-rule="evenodd" clip-rule="evenodd" d="M9.77068 3.78392C12.0714 4.11558 13.891 5.9397 14.2218 8.24623H16.5C16.1466 4.68844 13.3195 1.85427 9.77068 1.5V3.78392ZM14.2218 9.75377C13.891 12.0603 12.0714 13.8844 9.77068 14.2161V16.5C13.3195 16.1457 16.1466 13.3116 16.5 9.75377H14.2218ZM8.26692 14.2161C5.71805 13.8467 3.75564 11.6533 3.75564 9C3.75564 6.34673 5.71805 4.15327 8.26692 3.78392V1.5C4.46992 1.87688 1.5 5.08794 1.5 9C1.5 12.9121 4.46992 16.1231 8.26692 16.5V14.2161Z" fill="#6C6F80"/>
</g>
</svg>

<svg xmlns="http://www.w3.org/2000/svg" width="18" height="18" fill="none" viewBox="0 0 18 18">
  <path fill="#6C6F80" fill-rule="evenodd" d="M9.77 3.784a5.27 5.27 0 0 1 4.452 4.462H16.5c-.353-3.558-3.18-6.392-6.73-6.746v2.284Zm4.452 5.97a5.27 5.27 0 0 1-4.451 4.462V16.5c3.548-.354 6.376-3.188 6.729-6.746h-2.278Zm-5.955 4.462A5.274 5.274 0 0 1 3.756 9a5.274 5.274 0 0 1 4.51-5.216V1.5C4.47 1.877 1.5 5.088 1.5 9s2.97 7.123 6.767 7.5v-2.284Z" clip-rule="evenodd"/>
</svg>
